src/img/service-5.svg

<svg width="40" height="40" viewBox="0 0 40 40" fill="none" xmlns="http://www.w3.org/2000/svg">
<rect y="20" width="20" height="20" rx="8" fill="#3ED9B0"/>
<path d="M14.8386 8.38708C15.9075 8.38708 16.774 7.52055 16.774 6.4516C16.774 5.38265 15.9075 4.51611 14.8386 4.51611C13.7696 4.51611 12.9031 5.38265 12.9031 6.4516C12.9031 7.52055 13.7696 8.38708 14.8386 8.38708ZM14.8386 5.80644C15.1948 5.80644 15.4837 6.09531 15.4837 6.4516C15.4837 6.80789 15.1948 7.09676 14.8386 7.09676C14.4823 7.09676 14.1934 6.80789 14.1934 6.4516C14.1934 6.09531 14.4823 5.80644 14.8386 5.80644Z" fill="#333333"/>
<path d="M26.4516 7.7419C28.2332 7.7419 29.6775 6.29762 29.6775 4.51609C29.6775 2.73456 28.2332 1.29028 26.4516 1.29028C24.6701 1.29028 23.2258 2.73456 23.2258 4.51609C23.2279 6.29674 24.671 7.7398 26.4516 7.7419ZM26.4516 2.58061C27.5206 2.58061 28.3871 3.44714 28.3871 4.51609C28.3871 5.58504 27.5206 6.45157 26.4516 6.45157C25.3827 6.45157 24.5162 5.58504 24.5162 4.51609C24.5162 3.44714 25.3827 2.58061 26.4516 2.58061Z" fill="#333333"/>
<path d="M13.5485 29.0322C12.4796 29.0322 11.613 28.1657 11.613 27.0967H10.3227C10.3227 27.8094 9.74504 28.3871 9.03238 28.3871C8.31972 28.3871 7.74206 27.8094 7.74206 27.0967C7.74206 26.3841 8.31972 25.8064 9.03238 25.8064V25.7548C9.24593 25.7874 9.46149 25.8046 9.67754 25.8064V24.5161C7.89601 24.5161 6.45173 23.0718 6.45173 21.2903C6.45173 19.5088 7.89601 18.0645 9.67754 18.0645V16.7742C7.18585 16.7737 5.16552 18.7932 5.16504 21.2849C5.16472 22.8698 5.99601 24.3386 7.35496 25.1542C6.27206 26.0742 6.14004 27.698 7.06004 28.7809C7.98004 29.8638 9.60383 29.9958 10.6867 29.0758C10.7533 29.0192 10.8171 28.9592 10.8775 28.8962C11.8765 30.3713 13.8821 30.7573 15.3573 29.7584C16.2408 29.1601 16.7712 28.1637 16.7743 27.0967H15.484C15.484 28.1657 14.6175 29.0322 13.5485 29.0322Z" fill="#333333"/>
<path d="M35.4839 21.2903C35.4818 19.5096 34.0387 18.0665 32.2581 18.0645V19.3548C33.327 19.3548 34.1935 20.2213 34.1935 21.2903C34.1935 22.3592 33.327 23.2258 32.2581 23.2258V24.5161C32.9707 24.5161 33.5484 25.0937 33.5484 25.8064C33.5484 26.5191 32.9707 27.0967 32.2581 27.0967C31.5454 27.0967 30.9677 26.5191 30.9677 25.8064H29.6774C29.6774 26.8754 28.8109 27.7419 27.7419 27.7419C26.673 27.7419 25.8064 26.8754 25.8064 25.8064H24.5161C24.5172 27.5879 25.9625 29.0312 27.744 29.0301C28.8156 29.0294 29.8168 28.4966 30.4161 27.6083C31.4108 28.6261 33.0423 28.6448 34.06 27.65C35.0777 26.6553 35.0965 25.0239 34.1017 24.0062C34.088 23.9921 34.074 23.9782 34.06 23.9645C34.9498 23.3653 35.4834 22.3629 35.4839 21.2903Z" fill="#333333"/>
<path d="M7.09686 16.129C8.16581 16.129 9.03235 15.2625 9.03235 14.1935C9.03235 13.1246 8.16581 12.2581 7.09686 12.2581C6.02791 12.2581 5.16138 13.1246 5.16138 14.1935C5.16138 15.2625 6.02791 16.129 7.09686 16.129ZM7.09686 13.5484C7.45315 13.5484 7.74202 13.8373 7.74202 14.1935C7.74202 14.5498 7.45315 14.8387 7.09686 14.8387C6.74057 14.8387 6.4517 14.5498 6.4517 14.1935C6.4517 13.8373 6.74057 13.5484 7.09686 13.5484Z" fill="#333333"/>
<path d="M2.58065 23.2258C1.1554 23.2258 0 24.3812 0 25.8065C0 27.2317 1.1554 28.3871 2.58065 28.3871C4.00589 28.3871 5.16129 27.2317 5.16129 25.8065C5.16129 24.3812 4.00589 23.2258 2.58065 23.2258ZM2.58065 27.0968C1.86798 27.0968 1.29032 26.5191 1.29032 25.8065C1.29032 25.0938 1.86798 24.5162 2.58065 24.5162C3.29331 24.5162 3.87097 25.0938 3.87097 25.8065C3.87097 26.5191 3.29331 27.0968 2.58065 27.0968Z" fill="#333333"/>
<path d="M32.258 16.774C33.3269 16.774 34.1935 15.9075 34.1935 14.8386C34.1935 13.7696 33.3269 12.9031 32.258 12.9031C31.189 12.9031 30.3225 13.7696 30.3225 14.8386C30.3225 15.9075 31.189 16.774 32.258 16.774ZM32.258 14.1934C32.6143 14.1934 32.9032 14.4823 32.9032 14.8386C32.9032 15.1949 32.6143 15.4837 32.258 15.4837C31.9017 15.4837 31.6128 15.1949 31.6128 14.8386C31.6128 14.4823 31.9017 14.1934 32.258 14.1934Z" fill="#333333"/>
<path d="M37.4195 9.67749C35.9943 9.67749 34.8389 10.8329 34.8389 12.2581C34.8389 13.6834 35.9943 14.8388 37.4195 14.8388C38.8448 14.8388 40.0002 13.6834 40.0002 12.2581C40.0002 10.8329 38.8448 9.67749 37.4195 9.67749ZM37.4195 13.5485C36.7069 13.5485 36.1292 12.9708 36.1292 12.2581C36.1292 11.5455 36.7069 10.9678 37.4195 10.9678C38.1322 10.9678 38.7098 11.5455 38.7098 12.2581C38.7098 12.9708 38.1322 13.5485 37.4195 13.5485Z" fill="#333333"/>
<path d="M28.3871 23.2258C28.7434 23.2258 29.0323 22.937 29.0323 22.5807V16.129C29.0323 15.7728 28.7434 15.4839 28.3871 15.4839H11.6129C11.2566 15.4839 10.9678 15.7728 10.9678 16.129V22.5807C10.9678 22.937 11.2566 23.2258 11.6129 23.2258H15.862L18.0645 25.4284V36.7742C18.0645 37.8432 18.9311 38.7097 20 38.7097C21.069 38.7097 21.9355 37.8432 21.9355 36.7742V25.4284L24.1381 23.2258H28.3871ZM12.2581 16.7742H27.742V18.0645H12.2581V16.7742ZM13.5484 21.9355H12.2581V19.3549H13.5484V21.9355ZM14.8387 21.9355V19.3549H27.742V21.9355H14.8387ZM20 37.4194C19.6437 37.4194 19.3549 37.1305 19.3549 36.7742C19.3549 36.4179 19.6437 36.129 20 36.129C20.3563 36.129 20.6452 36.4179 20.6452 36.7742C20.6452 37.1305 20.3563 37.4194 20 37.4194ZM20.6452 34.9574C20.2296 34.7991 19.7704 34.7991 19.3549 34.9574V25.8065H20.6452V34.9574ZM21.0233 24.5161H18.9768L17.6865 23.2258H22.3136L21.0233 24.5161Z" fill="#333333"/>
<path d="M13.5483 10.9675C14.6173 10.9675 15.4838 11.8341 15.4838 12.903H16.7742C16.7742 11.1215 18.2184 9.67723 20 9.67723C21.7815 9.67723 23.2258 11.1215 23.2258 12.903H24.5161C24.5161 11.8341 25.3826 10.9675 26.4516 10.9675C27.5205 10.9675 28.3871 11.8341 28.3871 12.903H29.6774C29.6852 11.1293 28.2537 9.68513 26.48 9.67723C25.5255 9.67303 24.6186 10.0936 24.0051 10.825C22.8612 8.61295 20.1407 7.74715 17.9288 8.89102C17.0995 9.31989 16.4237 9.99561 15.9948 10.825C14.855 9.46594 12.8292 9.28828 11.4703 10.4282C10.7389 11.0416 10.3183 11.9485 10.3225 12.903H11.6129C11.6129 11.8341 12.4794 10.9675 13.5483 10.9675Z" fill="#333333"/>
<path d="M25.6146 31.1561L24.3245 29.866L23.4121 30.7784L24.7022 32.0685L25.6146 31.1561Z" fill="#333333"/>
<path d="M25.996 33.36L27.2861 34.6501L28.1985 33.7378L26.9084 32.4476L25.996 33.36Z" fill="#333333"/>
<path d="M25.998 31.1567L26.9104 32.0691L28.2005 30.779L27.2881 29.8666L25.998 31.1567Z" fill="#333333"/>
<path d="M23.4174 33.7373L24.3298 34.6497L25.62 33.3595L24.7076 32.4472L23.4174 33.7373Z" fill="#333333"/>
</svg>

<svg width="40" height="40" viewBox="0 0 40 40" xmlns="http://www.w3.org/2000/svg" fill="none"><rect y="20" width="20" height="20" rx="8" fill="#3ED9B0"/><path d="M14.839 8.387c1.069 0 1.935-.867 1.935-1.935 0-1.069-.867-1.935-1.935-1.935-1.069 0-1.935.867-1.935 1.935 0 1.069.867 1.935 1.935 1.935zm0-2.581c.356 0 .645.289.645.645 0 .356-.289.645-.645.645-.356 0-.645-.289-.645-.645 0-.356.289-.645.645-.645zM26.452 7.742c1.782 0 3.226-1.444 3.226-3.226s-1.444-3.226-3.226-3.226c-1.781 0-3.226 1.444-3.226 3.226.002 1.781 1.445 3.224 3.226 3.226zm0-5.161c1.069 0 1.936.867 1.936 1.935 0 1.069-.866 1.935-1.936 1.935-1.069 0-1.935-.867-1.935-1.935 0-1.069.866-1.935 1.935-1.935zM13.549 29.032c-1.069 0-1.936-.866-1.936-1.936h-1.29c0 .713-.578 1.29-1.29 1.29-.713 0-1.29-.578-1.29-1.29 0-.713.578-1.29 1.29-1.29v-.052c.214.033.429.05.645.052v-1.29c-1.782 0-3.226-1.444-3.226-3.226 0-1.781 1.444-3.226 3.226-3.226v-1.29c-2.492 0-4.512 2.019-4.513 4.511 0 1.585.831 3.054 2.19 3.869-1.083.92-1.215 2.544-.295 3.627.92 1.083 2.544 1.215 3.627.295l.191-.18c.999 1.475 3.005 1.861 4.48.862.883-.598 1.414-1.595 1.417-2.662h-1.29c0 1.069-.867 1.936-1.935 1.936zM35.484 21.29c-.002-1.781-1.445-3.224-3.226-3.226v1.29c1.069 0 1.935.866 1.935 1.935s-.867 1.936-1.935 1.936v1.29c.713 0 1.29.578 1.29 1.29 0 .713-.578 1.29-1.29 1.29-.713 0-1.29-.578-1.29-1.29h-1.29c0 1.069-.866 1.936-1.935 1.936s-1.936-.867-1.936-1.936h-1.29c.001 1.782 1.446 3.225 3.228 3.224 1.072-.001 2.073-.534 2.672-1.422.995 1.018 2.626 1.037 3.644.042 1.018-.995 1.036-2.626.042-3.644l-.042-.042c.89-.599 1.423-1.602 1.424-2.674zM7.097 16.129c1.069 0 1.935-.867 1.935-1.936s-.867-1.935-1.935-1.935c-1.069 0-1.935.866-1.935 1.935s.867 1.936 1.935 1.936zm0-2.581c.356 0 .645.289.645.645 0 .356-.289.645-.645.645-.356 0-.645-.289-.645-.645 0-.356.289-.645.645-.645zM2.581 23.226c-1.425 0-2.581 1.155-2.581 2.581 0 1.425 1.155 2.581 2.581 2.581 1.425 0 2.581-1.155 2.581-2.581 0-1.425-1.155-2.581-2.581-2.581zm0 3.871c-.713 0-1.29-.578-1.29-1.29 0-.713.578-1.29 1.29-1.29.713 0 1.29.578 1.29 1.29 0 .713-.578 1.29-1.29 1.29zM32.258 16.774c1.069 0 1.935-.867 1.935-1.935 0-1.069-.867-1.935-1.935-1.935-1.069 0-1.936.867-1.936 1.935 0 1.069.866 1.935 1.936 1.935zm0-2.581c.356 0 .645.289.645.645 0 .356-.289.645-.645.645-.356 0-.645-.289-.645-.645 0-.356.289-.645.645-.645zM37.419 9.677c-1.425 0-2.581 1.155-2.581 2.581 0 1.425 1.155 2.581 2.581 2.581 1.425 0 2.581-1.155 2.581-2.581 0-1.425-1.155-2.581-2.581-2.581zm0 3.871c-.713 0-1.29-.578-1.29-1.29 0-.713.578-1.29 1.29-1.29.713 0 1.29.578 1.29 1.29 0 .713-.578 1.29-1.29 1.29zM28.387 23.226c.356 0 .645-.289.645-.645v-6.452c0-.356-.289-.645-.645-.645h-16.774c-.356 0-.645.289-.645.645v6.452c0 .356.289.645.645.645h4.249l2.202 2.203v11.346c0 1.069.867 1.935 1.936 1.935s1.936-.866 1.936-1.935v-11.346l2.203-2.203h4.249zm-16.129-6.452h15.484v1.29h-15.484v-1.29zm1.29 5.161h-1.29v-2.581h1.29v2.581zm1.29 0v-2.581h12.903v2.581h-12.903zm5.161 15.484c-.356 0-.645-.289-.645-.645 0-.356.289-.645.645-.645.356 0 .645.289.645.645 0 .356-.289.645-.645.645zm.645-2.462c-.416-.158-.875-.158-1.29 0v-9.151h1.29v9.151zm.378-10.441h-2.046l-1.29-1.29h4.627l-1.29 1.29zM13.548 10.967c1.069 0 1.936.867 1.936 1.936h1.29c0-1.782 1.444-3.226 3.226-3.226s3.226 1.444 3.226 3.226h1.29c0-1.069.866-1.936 1.935-1.936s1.936.867 1.936 1.936h1.29c.008-1.774-1.424-3.218-3.197-3.226-.954-.004-1.861.416-2.475 1.148-1.144-2.212-3.864-3.078-6.076-1.934-.829.429-1.505 1.105-1.934 1.934-1.14-1.359-3.166-1.537-4.524-.397-.731.613-1.152 1.52-1.148 2.475h1.29c0-1.069.867-1.936 1.935-1.936zM25.615 31.156l-1.29-1.29-.912.912 1.29 1.29.912-.912zM25.996 33.36l1.29 1.29.912-.912-1.29-1.29-.912.912zM25.998 31.157l.912.912 1.29-1.29-.912-.912-1.29 1.29zM23.417 33.737l.912.912 1.29-1.29-.912-.912-1.29 1.29z" fill="#333"/></svg>
